icons/ping-pong-fill.svg

<svg xmlns="http://www.w3.org/2000/svg" width="24" height="24" fill="none"><g clip-path="url(#a)"><g><path fill="#121212" d="M11.5 2C14.0196 2 16.4359 3.00089 18.2175 4.78249C19.9991 6.56408 21 8.98044 21 11.5C21.0023 12.9769 20.6588 14.4337 19.997 15.754L22.46 18.218C22.6475 18.4055 22.7528 18.6598 22.7528 18.925C22.7528 19.1902 22.6475 19.4445 22.46 19.632L19.632 22.46C19.4445 22.6475 19.1902 22.7528 18.925 22.7528C18.6598 22.7528 18.4055 22.6475 18.218 22.46L15.754 19.997C14.4337 20.6588 12.9769 21.0023 11.5 21C8.98044 21 6.56408 19.9991 4.78249 18.2175C3.00089 16.4359 2 14.0196 2 11.5C2 8.98044 3.00089 6.56408 4.78249 4.78249C6.56408 3.00089 8.98044 2 11.5 2ZM16.803 15.388L15.389 16.802L18.925 20.337L20.339 18.923L16.803 15.388ZM18.667 9.283L9.283 18.667C9.983 18.883 10.728 19 11.5 19C12.4376 19.0012 13.3671 18.8262 14.24 18.484L13.268 17.51C13.0805 17.3225 12.9752 17.0682 12.9752 16.803C12.9752 16.5378 13.0805 16.2835 13.268 16.096L16.096 13.268C16.2835 13.0805 16.5378 12.9752 16.803 12.9752C17.0682 12.9752 17.3225 13.0805 17.51 13.268L18.484 14.24C18.8262 13.3671 19.0012 12.4376 19 11.5C19 10.728 18.883 9.984 18.667 9.283Z"/></g></g><defs><clipPath id="a"><rect width="24" height="24" fill="white"/></clipPath></defs></svg>

<svg width="24" height="24" fill="none" xmlns="http://www.w3.org/2000/svg"><g clip-path="url(#a)"><path d="M11.5 2a9.5 9.5 0 0 1 9.5 9.5 9.46 9.46 0 0 1-1.003 4.254l2.463 2.464a1 1 0 0 1 0 1.414l-2.828 2.828a1 1 0 0 1-1.414 0l-2.464-2.463A9.46 9.46 0 0 1 11.5 21a9.5 9.5 0 0 1 0-19Zm5.303 13.388-1.414 1.414 3.536 3.535 1.414-1.414-3.536-3.535Zm1.864-6.105-9.384 9.384A7.51 7.51 0 0 0 11.5 19a7.481 7.481 0 0 0 2.74-.516l-.972-.974a1 1 0 0 1 0-1.414l2.828-2.828a1 1 0 0 1 1.414 0l.974.972A7.481 7.481 0 0 0 19 11.5c0-.772-.117-1.516-.333-2.217Z" /></g><defs><clipPath id="a"><path fill="#fff" d="M0 0h24v24H0z"/></clipPath></defs></svg>
